gama.ui.shared/icons_svg/dark/editor/toggle.folding.svg

<svg height="25" viewBox="-382.483 -3263.748 25 25" width="25" xmlns="http://www.w3.org/2000/svg"><g fill="none"><path d="m-378.1427-3263.248h16.31998c2.12077 0 3.84 1.719 3.84 3.84v16.32c0 2.1207-1.71923 3.84-3.84 3.84h-16.31998c-2.1208 0-3.84-1.7193-3.84-3.84v-16.32c0-2.121 1.7192-3.84 3.84-3.84z" fill="#666"/><path d="m-378.1427-3263.248h16.31998c2.12077 0 3.84 1.719 3.84 3.84v16.32c0 2.1207-1.71923 3.84-3.84 3.84h-16.31998c-2.1208 0-3.84-1.7193-3.84-3.84v-16.32c0-2.121 1.7192-3.84 3.84-3.84z" stroke="#fff" stroke-linecap="round" stroke-linejoin="round" stroke-width=".25"/><path d="m-370.97863-3245.2125c-.24887 0-.44444-.1955-.44444-.4445s.19557-.4444.44444-.4444h4.44443c.2489 0 .44446.1954.44446.4444s-.19556.4445-.44446.4445zm0-7.1111c-.24887 0-.44444-.1954-.44444-.4444s.19557-.4445.44444-.4445h4.44443c.2489 0 .44446.1955.44446.4445s-.19556.4444-.44446.4444zm0-3.5554c-.24887 0-.44444-.1957-.44444-.4446s.19557-.4444.44444-.4444h7.11113c.24887 0 .44443.1955.44443.4444s-.19556.4446-.44443.4446zm0 7.111c-.24887 0-.44444-.1956-.44444-.4445s.19557-.4445.44444-.4445h7.11113c.24887 0 .44443.1956.44443.4445s-.19556.4445-.44443.4445z" fill="#c0e0ff"/><path d="m-375.2574-3258.8036c0-.2489.19556-.4444.44445-.4444s.44445.1955.44445.4444v15.1111c0 .2489-.19556.4445-.44445.4445s-.44445-.1956-.44445-.4445z" fill="#c0e0ff"/><circle cx="-374.951" cy="-3255.693" fill="#fff" r="1.591"/><circle cx="-374.951" cy="-3255.693" r="1.591" stroke="#c2c2c2" stroke-linejoin="round"/><circle cx="-374.951" cy="-3246.617" fill="#fff" r="1.591"/><circle cx="-374.951" cy="-3246.617" r="1.591" stroke="#c2c2c2" stroke-linejoin="round"/></g></svg>

<?xml version="1.0" encoding="UTF-8" standalone="no"?>
<!DOCTYPE svg PUBLIC "-//W3C//DTD SVG 1.1//EN" "http://www.w3.org/Graphics/SVG/1.1/DTD/svg11.dtd">
<svg xmlns="http://www.w3.org/2000/svg" xmlns:xl="http://www.w3.org/1999/xlink" version="1.1" xmlns:dc="http://purl.org/dc/elements/1.1/" viewBox="-382.4827 -3263.748 25 25" width="25" height="25">
  <defs/>
  <g id="SOURCES" stroke-opacity="1" fill="none" stroke="none" fill-opacity="1" stroke-dasharray="none">
    <title>SOURCES</title>
    <g id="SOURCES_Dark">
      <title>Dark</title>
      <g id="Graphic_11424">
        <path d="M -378.1427 -3263.248 L -361.82272 -3263.248 C -359.70195 -3263.248 -357.98272 -3261.529 -357.98272 -3259.408 L -357.98272 -3243.088 C -357.98272 -3240.9673 -359.70195 -3239.248 -361.82272 -3239.248 L -378.1427 -3239.248 C -380.2635 -3239.248 -381.9827 -3240.9673 -381.9827 -3243.088 L -381.9827 -3259.408 C -381.9827 -3261.529 -380.2635 -3263.248 -378.1427 -3263.248 Z" fill="#666"/>
        <path d="M -378.1427 -3263.248 L -361.82272 -3263.248 C -359.70195 -3263.248 -357.98272 -3261.529 -357.98272 -3259.408 L -357.98272 -3243.088 C -357.98272 -3240.9673 -359.70195 -3239.248 -361.82272 -3239.248 L -378.1427 -3239.248 C -380.2635 -3239.248 -381.9827 -3240.9673 -381.9827 -3243.088 L -381.9827 -3259.408 C -381.9827 -3261.529 -380.2635 -3263.248 -378.1427 -3263.248 Z" stroke="white" stroke-linecap="round" stroke-linejoin="round" stroke-width=".25"/>
      </g>
      <g id="Graphic_11423">
        <path d="M -370.97863 -3245.2125 C -371.2275 -3245.2125 -371.42307 -3245.408 -371.42307 -3245.657 C -371.42307 -3245.906 -371.2275 -3246.1014 -370.97863 -3246.1014 L -366.5342 -3246.1014 C -366.2853 -3246.1014 -366.08974 -3245.906 -366.08974 -3245.657 C -366.08974 -3245.408 -366.2853 -3245.2125 -366.5342 -3245.2125 Z M -370.97863 -3252.3236 C -371.2275 -3252.3236 -371.42307 -3252.519 -371.42307 -3252.768 C -371.42307 -3253.017 -371.2275 -3253.2125 -370.97863 -3253.2125 L -366.5342 -3253.2125 C -366.2853 -3253.2125 -366.08974 -3253.017 -366.08974 -3252.768 C -366.08974 -3252.519 -366.2853 -3252.3236 -366.5342 -3252.3236 Z M -370.97863 -3255.879 C -371.2275 -3255.879 -371.42307 -3256.0747 -371.42307 -3256.3236 C -371.42307 -3256.5725 -371.2275 -3256.768 -370.97863 -3256.768 L -363.8675 -3256.768 C -363.61863 -3256.768 -363.42307 -3256.5725 -363.42307 -3256.3236 C -363.42307 -3256.0747 -363.61863 -3255.879 -363.8675 -3255.879 Z M -370.97863 -3248.768 C -371.2275 -3248.768 -371.42307 -3248.9636 -371.42307 -3249.2125 C -371.42307 -3249.4614 -371.2275 -3249.657 -370.97863 -3249.657 L -363.8675 -3249.657 C -363.61863 -3249.657 -363.42307 -3249.4614 -363.42307 -3249.2125 C -363.42307 -3248.9636 -363.61863 -3248.768 -363.8675 -3248.768 Z" fill="#c0e0ff"/>
      </g>
      <g id="Graphic_11422">
        <path d="M -375.2574 -3258.8036 C -375.2574 -3259.0525 -375.06184 -3259.248 -374.81295 -3259.248 C -374.56406 -3259.248 -374.3685 -3259.0525 -374.3685 -3258.8036 L -374.3685 -3243.6925 C -374.3685 -3243.4436 -374.56406 -3243.248 -374.81295 -3243.248 C -375.06184 -3243.248 -375.2574 -3243.4436 -375.2574 -3243.6925 Z" fill="#c0e0ff"/>
      </g>
      <g id="Graphic_11421">
        <circle cx="-374.95126" cy="-3255.6925" r="1.59111365355067" fill="white"/>
        <circle cx="-374.95126" cy="-3255.6925" r="1.59111365355067" stroke="#c2c2c2" stroke-linecap="butt" stroke-linejoin="round" stroke-width="1"/>
      </g>
      <g id="Graphic_11420">
        <circle cx="-374.95126" cy="-3246.617" r="1.59111365355061" fill="white"/>
        <circle cx="-374.95126" cy="-3246.617" r="1.59111365355061" stroke="#c2c2c2" stroke-linecap="butt" stroke-linejoin="round" stroke-width="1"/>
      </g>
    </g>
  </g>
</svg>
